force-app/main/default/staticresources/navsvglogos/dialog.svg

<svg width="24" height="24" viewBox="0 0 24 24" fill="none" xmlns="http://www.w3.org/2000/svg">
<path fill-rule="evenodd" clip-rule="evenodd" d="M2 13.5179L4.60216 12H6V11C6 8.79086 7.79086 7 10 7H16V4C16 2.89543 15.1046 2 14 2H4C2.89543 2 2 2.89543 2 4V13.5179ZM5.14286 14H6V17C6 19.2091 7.79086 21 10 21H18.8571L24 24V11C24 8.79086 22.2091 7 20 7H18V4C18 1.79086 16.2091 0 14 0H4C1.79086 0 0 1.79086 0 4V17L5.14286 14ZM19.3978 19L22 20.5179V11C22 9.89543 21.1046 9 20 9H10C8.89543 9 8 9.89543 8 11V17C8 18.1046 8.89543 19 10 19H19.3978ZM11 15C11.5523 15 12 14.5523 12 14C12 13.4477 11.5523 13 11 13C10.4477 13 10 13.4477 10 14C10 14.5523 10.4477 15 11 15ZM16 14C16 14.5523 15.5523 15 15 15C14.4477 15 14 14.5523 14 14C14 13.4477 14.4477 13 15 13C15.5523 13 16 13.4477 16 14ZM19 15C19.5523 15 20 14.5523 20 14C20 13.4477 19.5523 13 19 13C18.4477 13 18 13.4477 18 14C18 14.5523 18.4477 15 19 15Z" fill="#262626"/>
</svg>

<svg width="1em" height="1em" viewBox="0 0 24 24" fill="none" xmlns="http://www.w3.org/2000/svg" focusable="false" role="img"><path fill-rule="evenodd" clip-rule="evenodd" d="M2 13.518L4.602 12H6v-1a4 4 0 014-4h6V4a2 2 0 00-2-2H4a2 2 0 00-2 2v9.518zM5.143 14H6v3a4 4 0 004 4h8.857L24 24V11a4 4 0 00-4-4h-2V4a4 4 0 00-4-4H4a4 4 0 00-4 4v13l5.143-3zm14.255 5L22 20.518V11a2 2 0 00-2-2H10a2 2 0 00-2 2v6a2 2 0 002 2h9.398zM11 15a1 1 0 100-2 1 1 0 000 2zm5-1a1 1 0 11-2 0 1 1 0 012 0zm3 1a1 1 0 100-2 1 1 0 000 2z" fill="currentColor"></path></svg>
